X:19
T:Mulb'ry Bush
%%score 1 { 2 | 3 }
L:1/8
Q:1/4=120
M:6/8
I:linebreak $
K:G
V:1 treble nm="Violin"
V:2 treble nm="Piano"
V:3 bass 
V:1
"G" GGG G2 B | d2 B G2 G |"D" A2 A A3 | F2 E D3 |$"G" GGG G2 B | d2 B G2 G |"D" A2 A DEF | 
w: Here we go round the|mul- b'ry bush, The|mul- b'ry bush,|mul- b'ry bush,|Here we go round the|mul- b'ry bush, So|ear- ly in _ the|
"G" G3 G2 z |$"G" GGG G2 B | d2 B G2 G |"D" A2 A A3 | F2 E D3 |$"G" GGG G2 B | d2 B G2 G | 
w: morn- ing.|This is the way we|wash the clothes, *|Wash the clothes,|wash the clothes,|This is the way we|wash the clothes, So|
"D" A2 A DEF |"G" G3 G2 z |] 
w: ear- ly Mon- day morn-|ing. *|
V:2
GGG G2 B | d2 B G2 G | A2 A A3 | F2 E D3 |$ GGG G2 B | d2 B G2 G | A2 A DEF | G3 G2 z |$ 
GGG G2 B | d2 B G2 G | A2 A A3 | F2 E D3 |$ GGG G2 B | d2 B G2 G | A2 A DEF | G3 G2 z |] 
V:3
G,,2 z [G,B,] z2 | G,,2 z [G,B,] z2 | D,2 z [D,C] z2 | D,2 z [D,C] z2 |$ G,,2 z [G,B,] z2 | 
G,,2 z [G,B,] z2 | D,2 z [D,C] z2 | G,,2 z [G,B,] z2 |$ G,,2 z [G,B,] z2 | G,,2 z [G,B,] z2 | 
D,2 z [D,C] z2 | D,2 z [D,C] z2 |$ G,,2 z [G,B,] z2 | G,,2 z [G,B,] z2 | D,2 z [D,C] z2 | 
G,,2 z [G,B,] z2 |] 



